X:1
T:La Grand'B?te
C:Gilles CHABENAT
R:Schottische
M:2/4
L:1/8
K:Dm
D/E/F/G/ AA|G/A/B/G/ A2|F/A/G/F/ E/G/F/E/|D/E/F/G/ A2| \
D/E/F/G/ AA|G/A/B/G/ A2|c=B AG|E/G/F/E/ D2:|
A2 d2|^c/d/e/c/ d2|A/B/=c/A/ c/B/A/G/|F/E/F/G/ A2| \
A2 d2|^c/d/e/c/ d2|A/B/=c/A/ c/B/A/G/|F/G/F/E/ D2:|
<end>
<start>
